SF_Symbols/square.and.pencil.svg

<?xml version="1.0" encoding="UTF-8"?>
<svg xmlns="http://www.w3.org/2000/svg" xmlns:xlink="http://www.w3.org/1999/xlink" width="24" height="24" viewBox="0 0 24 24" version="1.1">
<g id="surface1">
<path style=" stroke:none;fill-rule:nonzero;fill:rgb(100%,100%,100%);fill-opacity:1;" d="M 3.796875 23.308594 L 17.554688 23.308594 C 18.609375 23.308594 19.425781 23.003906 20.003906 22.394531 C 20.589844 21.792969 20.882812 20.886719 20.882812 19.675781 L 20.882812 7.148438 L 18.996094 9.035156 L 18.996094 19.582031 C 18.996094 20.191406 18.851562 20.652344 18.5625 20.964844 C 18.273438 21.269531 17.929688 21.421875 17.53125 21.421875 L 3.832031 21.421875 C 3.246094 21.421875 2.792969 21.269531 2.472656 20.964844 C 2.160156 20.652344 2.003906 20.191406 2.003906 19.582031 L 2.003906 6.28125 C 2.003906 5.671875 2.160156 5.210938 2.472656 4.898438 C 2.792969 4.585938 3.246094 4.429688 3.832031 4.429688 L 14.507812 4.429688 L 16.394531 2.542969 L 3.796875 2.542969 C 2.578125 2.542969 1.660156 2.847656 1.042969 3.457031 C 0.425781 4.058594 0.117188 4.964844 0.117188 6.175781 L 0.117188 19.675781 C 0.117188 20.886719 0.425781 21.792969 1.042969 22.394531 C 1.660156 23.003906 2.578125 23.308594 3.796875 23.308594 Z M 8.0625 15.714844 L 10.347656 14.71875 L 21.292969 3.785156 L 19.6875 2.203125 L 8.753906 13.136719 L 7.699219 15.339844 C 7.652344 15.441406 7.671875 15.542969 7.757812 15.644531 C 7.851562 15.738281 7.953125 15.761719 8.0625 15.714844 Z M 22.160156 2.929688 L 23.003906 2.0625 C 23.199219 1.851562 23.296875 1.621094 23.296875 1.371094 C 23.304688 1.113281 23.207031 0.886719 23.003906 0.691406 L 22.734375 0.410156 C 22.554688 0.230469 22.335938 0.148438 22.078125 0.164062 C 21.828125 0.179688 21.605469 0.28125 21.410156 0.46875 L 20.554688 1.3125 Z M 22.160156 2.929688 "/>
</g>
</svg>

<svg xmlns="http://www.w3.org/2000/svg" width="24" height="24"><path style="stroke:none;fill-rule:nonzero;fill:#fff;fill-opacity:1" d="M3.797 23.309h13.758c1.054 0 1.87-.305 2.449-.914.586-.602.879-1.508.879-2.72V7.149l-1.887 1.887v10.547c0 .61-.144 1.07-.433 1.383-.29.305-.633.457-1.032.457H3.832c-.586 0-1.039-.152-1.36-.457-.312-.313-.468-.774-.468-1.383v-13.3c0-.61.156-1.071.469-1.384.32-.312.773-.468 1.359-.468h10.676l1.887-1.887H3.797c-1.219 0-2.137.305-2.754.914-.617.602-.926 1.508-.926 2.719v13.5c0 1.21.309 2.117.926 2.719.617.609 1.535.914 2.754.914Zm4.265-7.594 2.286-.996L21.293 3.785l-1.605-1.582L8.754 13.137 7.699 15.34c-.047.101-.027.203.059.305.094.093.195.117.304.07ZM22.16 2.93l.844-.868c.195-.21.293-.44.293-.69a.87.87 0 0 0-.293-.68l-.27-.282a.823.823 0 0 0-.656-.246c-.25.016-.473.117-.668.305l-.855.844Zm0 0"/></svg>
